X: 9813
T: Denis Murphy's
R: slide
M: 12/8
K: Dmajor
B|:A2F FED F2A def|g2e f2d e2d BdB|
A2F FED F2A dfg|1 a2f efe d3 dcB:|2 a2f efe d3 dBA||
|:d2e f3 gfe f3|fgf fed e2d cBA|
d2e f3 gfe f2g|1 afd efe d3 dBA:|2 afd efe d3 dcB||

